**kern	**silbe	**kern	**silbe	**harmony	**chordsym	**phrase	**timestamp	**leadinstrument
*ICvox	*	*ICvox	*	*M4/4	*M4/4	*	*	*
*	*	*	*	*a:	*a:	*a:	*a:	*a:
=1	=1	=1	=1	=1	=1	=1	=1	=1
*C:	*	*C:	*	*	*	*	*	*
*M4/4	*	*M4/4	*	*	*	*	*	*
*clefG2	*	*clefG2	*	*	*	*	*	*
1r	.	1r	.	1r;	r	.	0	r
=2	=2	=2	=2	=2	=2	=2	=2	=2
1r	.	1r	.	1r;	r	.	.	r
=3	=3	=3	=3	=3	=3	=3	=3	=3
1r	.	1r	.	1r;	r	.	.	r
=4	=4	=4	=4	=4	=4	=4	=4	=4
1r	.	1r	.	1r;	r	.	.	r
=5	=5	=5	=5	=5	=5	=5	=5	=5
1r	.	1r	.	1r;	r	.	.	r
=6	=6	=6	=6	=6	=6	=6	=6	=6
1r	.	1r	.	1r;	r	.	.	r
=7	=7	=7	=7	=7	=7	=7	=7	=7
1r	.	1r	.	1r;	r	.	.	r
=8	=8	=8	=8	=8	=8	=8	=8	=8
1r	.	1r	.	1r;	r	.	.	r
=9	=9	=9	=9	=9	=9	=9	=9	=9
1r	.	1r	.	1r;	r	.	.	r
=10	=10	=10	=10	=10	=10	=10	=10	=10
1r	.	1r	.	1r;	r	.	.	r
=11	=11	=11	=11	=11	=11	=11	=11	=11
1r	.	1r	.	1r;	r	.	.	r
=12	=12	=12	=12	=12	=12	=12	=12	=12
1r	.	1r	.	1r;	r	.	.	r
=13	=13	=13	=13	=13	=13	=13	=13	=13
1r	.	1r	.	1r;	r	.	.	r
=14	=14	=14	=14	=14	=14	=14	=14	=14
1r	.	1r	.	1r;	r	.	.	r
=15	=15	=15	=15	=15	=15	=15	=15	=15
1r	.	1r	.	1r;	r	.	.	r
=16	=16	=16	=16	=16	=16	=16	=16	=16
*clefF4	*	*	*	*	*	*	*	*
2r	.	1r	.	1CM	C:maj (G C E)	newline	25.421	acoustic guitar
8r	.	.	.	.	.	.	.	.
8A	We	.	.	.	.	.	.	.
4c	may	.	.	.	.	.	.	.
=17	=17	=17	=17	=17	=17	=17	=17	=17
8e-	still	1r	.	1F#dm	F#:hdim7 (F# A C E)	.	.	acoustic guitar
4d	have	.	.	.	.	.	.	.
8c	time,	.	.	.	.	.	.	.
4d	_	.	.	.	.	.	.	.
8A	we	.	.	.	.	.	.	.
[8c	might	.	.	.	.	.	.	.
=18	=18	=18	=18	=18	=18	=18	=18	=18
8c]	_	1r	.	1EM	E:maj (E G# B)	.	.	acoustic guitar
8e	still	.	.	.	.	.	.	.
8d	get	.	.	.	.	.	.	.
[8c	by	.	.	.	.	.	.	.
8c]	_	.	.	.	.	.	.	.
8r	.	.	.	.	.	.	.	.
16r	.	.	.	.	.	.	.	.
16A	Ev-	.	.	.	.	.	.	.
8A	-'ry	.	.	.	.	.	.	.
=19	=19	=19	=19	=19	=19	=19	=19	=19
8gq	_	.	.	.	.	.	.	.
8a	time	1r	.	1r;	r	.	.	r
8a	I	.	.	.	.	.	.	.
8a	think	.	.	.	.	.	.	.
8a	a	.	.	.	.	.	.	.
8dq	_	.	.	.	.	.	.	.
8e	bout	.	.	.	.	.	.	.
8d	it	.	.	.	.	.	.	.
8c	I	.	.	.	.	.	.	.
[8d	want	.	.	.	.	.	.	.
=20	=20	=20	=20	=20	=20	=20	=20	=20
8d]	_	1r	.	1Dm	D:min (D F A)	.	.	r
8d	to	.	.	.	.	.	.	.
8c	_	.	.	.	.	.	.	.
8dq	_	.	.	.	.	.	.	.
8e-	cry	.	.	.	.	.	.	.
8d	_	.	.	.	.	.	.	.
4r	.	.	.	.	.	.	.	.
8A	With	.	.	.	.	.	.	.
=21	=21	=21	=21	=21	=21	=21	=21	=21
16AQ	_	.	.	.	.	.	.	.
16dQ	_	.	.	.	.	.	.	.
4e	bombs	1r	.	1EM	E:maj (E G# B)	.	.	r
8d	and	.	.	.	.	.	.	.
8c	the	.	.	.	.	.	.	.
8d	de-	.	.	.	.	.	.	.
8A	-vil	.	.	.	.	.	.	.
8.r	.	.	.	.	.	.	.	.
16A	and	.	.	.	.	.	.	.
=22	=22	=22	=22	=22	=22	=22	=22	=22
6A	the	1r	.	1r;	r	.	.	r
6A	kids	.	.	.	.	.	.	.
6A	keep	.	.	.	.	.	.	.
8c	co-	.	.	.	.	.	.	.
8d	-ming	.	.	.	.	.	.	.
8r	.	.	.	.	.	.	.	.
8A	no	.	.	.	.	.	.	.
=23	=23	=23	=23	=23	=23	=23	=23	=23
*	*	*	*	*>B_intro	*>B_intro	*>B_intro	*>B_intro	*>B_intro
8gq	_	.	.	.	.	.	.	.
8a	where	1r	.	1Am	A:min (A C E)	newline	37.297	acoustic guitar
8a	to	.	.	.	.	.	.	.
8a	breathe	.	.	.	.	.	.	.
8dq	_	.	.	.	.	.	.	.
8e-	ea	.	.	.	.	.	.	.
8d	_	.	.	.	.	.	.	.
8c	sy,	.	.	.	.	.	.	.
8c	no	.	.	.	.	.	.	.
[8d	time	.	.	.	.	.	.	.
=24	=24	=24	=24	=24	=24	=24	=24	=24
4d]	_	1r	.	1FM	F:maj (F A C)	.	.	acoustic guitar
16d	to	.	.	.	.	.	.	.
8c	be	.	.	.	.	.	.	.
8dq	_	.	.	.	.	.	.	.
[16e	young	.	.	.	.	.	.	.
4.e]	_	.	.	.	.	.	.	.
8c	_	.	.	.	.	.	.	.
=25	=25	=25	=25	=25	=25	=25	=25	=25
8d	_	1r	.	1Am	A:min (A C E)	.	.	acoustic guitar
8c	_	.	.	.	.	.	.	.
[2.A	_	.	.	.	.	.	.	.
=26	=26	=26	=26	=26	=26	=26	=26	=26
4A]	_	1r	.	2.FM	F:maj (F A C)	.	.	acoustic guitar
4r	.	.	.	.	.	.	.	.
2r	.	.	.	.	.	.	.	.
.	.	.	.	4GM	G:maj (G B D)	.	.	acoustic guitar
=27	=27	=27	=27	=27	=27	=27	=27	=27
*clefG2	*	*	*	*	*	*	*	*
1r	.	1r	.	1Am	A:min (A C E)	newline	44.932	electric guitar
=28	=28	=28	=28	=28	=28	=28	=28	=28
2r	.	1r	.	1FM	F:maj (F A C)	.	.	electric guitar
8r	.	.	.	.	.	.	.	.
8a	But	.	.	.	.	.	.	.
4a	I	.	.	.	.	.	.	.
=29	=29	=29	=29	=29	=29	=29	=29	=29
8cc	tell	1r	.	1Am	A:min (A C E)	.	.	electric guitar
8cc	my	.	.	.	.	.	.	.
8r	.	.	.	.	.	.	.	.
8dd	self	.	.	.	.	.	.	.
8r	.	.	.	.	.	.	.	.
8dd	that	.	.	.	.	.	.	.
8dd	I	.	.	.	.	.	.	.
8cc	was	.	.	.	.	.	.	.
=30	=30	=30	=30	=30	=30	=30	=30	=30
8ee	do-	1r	.	2.FM	F:maj (F A C)	.	.	electric guitar
8dd	-ing	.	.	.	.	.	.	.
8cc	al	.	.	.	.	.	.	.
8gq	_	.	.	.	.	.	.	.
[8a	right	.	.	.	.	.	.	.
8a]	_	.	.	.	.	.	.	.
4r	.	.	.	.	.	.	.	.
.	.	.	.	4GM	G:maj (G B D)	.	.	electric guitar
8a	there's	.	.	.	.	.	.	.
=31	=31	=31	=31	=31	=31	=31	=31	=31
8dd	no-	1r	.	1Am	A:min (A C E)	newline	52.501	electric guitar
8cc	-thing	.	.	.	.	.	.	.
8dd	left	.	.	.	.	.	.	.
8cc	to	.	.	.	.	.	.	.
8dd	do	.	.	.	.	.	.	.
8cc	_	.	.	.	.	.	.	.
8cc	to	.	.	.	.	.	.	.
8dd#q	_	.	.	.	.	.	.	.
[8ee	night	.	.	.	.	.	.	.
=32	=32	=32	=32	=32	=32	=32	=32	=32
4ee]	_	1r	.	1GM	G:maj (G B D)	.	.	electric guitar
4r	.	.	.	.	.	.	.	.
8r	.	.	.	.	.	.	.	.
8a	but	.	.	.	.	.	.	.
8cc	go	.	.	.	.	.	.	.
16cc	cra	.	.	.	.	.	.	.
[16dd	_	.	.	.	.	.	.	.
=33	=33	=33	=33	=33	=33	=33	=33	=33
8.dd]	_	1r	.	1FM	F:maj (F A C)	.	.	electric guitar
16cc	_	.	.	.	.	.	.	.
8a	zy	.	.	.	.	.	.	.
[8a	on	.	.	.	.	.	.	.
8a]	_	.	.	.	.	.	.	.
8a	you!	.	.	.	.	.	.	.
8r	.	.	.	.	.	.	.	.
8r	.	.	.	.	.	.	.	.
=34	=34	=34	=34	=34	=34	=34	=34	=34
*	*	*	*	*>C_verse	*>C_verse	*>C_verse	*>C_verse	*>C_verse
1r	.	1r	.	1Am	A:min (A C E)	newline	58.086	voice
=35	=35	=35	=35	=35	=35	=35	=35	=35
8ccq	_	.	.	.	.	.	.	.
4dd	Cra	1r	.	1CM	C:maj (C E G)	.	.	voice
16cc	_	.	.	.	.	.	.	.
8.a	_	.	.	.	.	.	.	.
8a	zy	.	.	.	.	.	.	.
4a	on	.	.	.	.	.	.	.
[8cc	you	.	.	.	.	.	.	.
=36	=36	=36	=36	=36	=36	=36	=36	=36
4cc]	_	1r	.	1Dm	D:min (D F A)	.	.	voice
4r	.	.	.	.	.	.	.	.
8r	.	.	.	.	.	.	.	.
16a	Lem-	.	.	.	.	.	.	.
16a	-me	.	.	.	.	.	.	.
4cc	go	.	.	.	.	.	.	.
=37	=37	=37	=37	=37	=37	=37	=37	=37
8cc	cra	1r	.	1EM	E:maj (E G# B)	.	.	voice
4dd	_	.	.	.	.	.	.	.
8cc	zy,	.	.	.	.	.	.	.
8.dd	cra-	.	.	.	.	.	.	.
16cc	-zy	.	.	.	.	.	.	.
8a	on	.	.	.	.	.	.	.
[8g	you	.	.	.	.	.	.	.
=38	=38	=38	=38	=38	=38	=38	=38	=38
2.g]	_	1r	.	1Am	A:min (A C E)	.	.	voice
8cc	a-	.	.	.	.	.	.	.
[8f	-oh	.	.	.	.	.	.	.
=39	=39	=39	=39	=39	=39	=39	=39	=39
4.f_	_	1r	.	1CM	C:maj (C E G)	.	.	voice
16f]	_	.	.	.	.	.	.	.
[16e	_	.	.	.	.	.	.	.
2e_	_	.	.	.	.	.	.	.
=40	=40	=40	=40	=40	=40	=40	=40	=40
1e]	_	8d	love	1Dm	D:min (D F A)	.	.	voice
.	.	8e	_	.	.	.	.	.
.	.	8d	is	.	.	.	.	.
.	.	8c	the	.	.	.	.	.
.	.	8dq	_	.	.	.	.	.
.	.	8e	ev-	.	.	.	.	.
.	.	8d	-'ning	.	.	.	.	.
.	.	4c	breeze	.	.	.	.	.
=41	=41	=41	=41	=41	=41	=41	=41	=41
1r	.	8e	tou-	1EM	E:maj (E G# B)	.	.	voice
.	.	8d	-ching	.	.	.	.	.
.	.	8c	your	.	.	.	.	.
.	.	8d	skin	.	.	.	.	.
.	.	4e	_	.	.	.	.	.
.	.	8r	.	.	.	.	.	.
.	.	8A	the	.	.	.	.	.
=42	=42	=42	=42	=42	=42	=42	=42	=42
*	*	*	*	*>E_transition	*>E_transition	*>E_transition	*>E_transition	*>E_transition
.	.	8gq	_	.	.	.	.	.
1r	.	8a	gen-	2.Am	A:min (A C E)	newline	73.196	electric guitar
.	.	8a	-tle	.	.	.	.	.
.	.	4g	sweet	.	.	.	.	.
.	.	8dq	_	.	.	.	.	.
.	.	8e	sing-	.	.	.	.	.
.	.	8d	-ing	.	.	.	.	.
.	.	8c	of	4DM	D:maj (A D F#)	.	.	electric guitar
.	.	[8d	leaves	.	.	.	.	.
=43	=43	=43	=43	=43	=43	=43	=43	=43
1r	.	8d]	_	1DM	D:maj (A D F#)	.	.	electric guitar
.	.	8d	in	.	.	.	.	.
.	.	8c	the	.	.	.	.	.
.	.	8dq	_	.	.	.	.	.
.	.	8e-	wind	.	.	.	.	.
.	.	4d	_	.	.	.	.	.
.	.	8r	.	.	.	.	.	.
.	.	8A	The	.	.	.	.	.
=44	=44	=44	=44	=44	=44	=44	=44	=44
1r	.	8e	whis-	2.Am	A:min (A C E)	.	.	electric guitar
.	.	8d	-per	.	.	.	.	.
.	.	8c	tha	.	.	.	.	.
.	.	8d	calls	.	.	.	.	.
.	.	4c	_	.	.	.	.	.
.	.	8d	af-	4DM	D:maj (A D F#)	.	.	electric guitar
.	.	8c	-ter	.	.	.	.	.
=45	=45	=45	=45	=45	=45	=45	=45	=45
.	.	8dq	_	.	.	.	.	.
1r	.	8e-	you	1DM	D:maj (A D F#)	.	.	electric guitar
.	.	8d	in	.	.	.	.	.
.	.	8c	the	.	.	.	.	.
.	.	8d	night	.	.	.	.	.
.	.	4e	_	.	.	.	.	.
.	.	8r	.	.	.	.	.	.
.	.	8A	and	.	.	.	.	.
=46	=46	=46	=46	=46	=46	=46	=46	=46
*	*	*	*	*>D_prechorus	*>D_prechorus	*>D_prechorus	*>D_prechorus	*>D_prechorus
1r	.	8a	kis-	2Dm	D:min (D F A)	newline	80.756	voice
.	.	8a	-ses	.	.	.	.	.
.	.	8a	your	.	.	.	.	.
.	.	8dq	_	.	.	.	.	.
.	.	8e-	ear	.	.	.	.	.
.	.	8d	_	2Em	E:min (E G B)	.	.	voice
.	.	8c	in	.	.	.	.	.
.	.	8c	the	.	.	.	.	.
.	.	[8d	ear	.	.	.	.	.
=47	=47	=47	=47	=47	=47	=47	=47	=47
1r	.	8d]	_	2CM	C:maj (C E G)	.	.	voice
.	.	8d	ly	.	.	.	.	.
.	.	8c	moon	.	.	.	.	.
.	.	8dq	_	.	.	.	.	.
.	.	[8e	light	.	.	.	.	.
.	.	4.e]	_	2FM	F:maj (F A C)	.	.	voice
.	.	8c	_	.	.	.	.	.
=48	=48	=48	=48	=48	=48	=48	=48	=48
1r	.	8d	_	1Dm	D:min (D F A)	.	.	voice
.	.	8c	_	.	.	.	.	.
.	.	[4A	_	.	.	.	.	.
.	.	4A]	_	.	.	.	.	.
*	*	*clefG2	*	*	*	*	*	*
.	.	[4a	_	.	.	.	.	.
=49	=49	=49	=49	=49	=49	=49	=49	=49
1r	.	1a_	_	1EM	E:maj (E G# B)	.	.	voice
=50	=50	=50	=50	=50	=50	=50	=50	=50
*	*	*	*	*>B_chorus	*>B_chorus	*>B_chorus	*>B_chorus	*>B_chorus
1r	.	2a]	_	1Am	A:min (A C E)	newline	88.169	voice
.	.	2r	.	.	.	.	.	.
=51	=51	=51	=51	=51	=51	=51	=51	=51
*clefG2	*	*	*	*	*	*	*	*
2r	.	1r	.	2.FM	F:maj (F A C)	.	.	voice
4r	.	.	.	.	.	.	.	.
8r	.	.	.	4GM	G:maj (G B D)	.	.	voice
8a	And	.	.	.	.	.	.	.
=52	=52	=52	=52	=52	=52	=52	=52	=52
8cc	you	1r	.	1Am	A:min (A C E)	.	.	voice
8cc	don't	.	.	.	.	.	.	.
8cc	need	.	.	.	.	.	.	.
8cc	to	.	.	.	.	.	.	.
8dd	won-	.	.	.	.	.	.	.
8dd	-der	.	.	.	.	.	.	.
8r	.	.	.	.	.	.	.	.
8cc	you're	.	.	.	.	.	.	.
=53	=53	=53	=53	=53	=53	=53	=53	=53
8ee	do-	1r	.	2.FM	F:maj (F A C)	.	.	voice
4dd	-ing	.	.	.	.	.	.	.
[8cc	fine	.	.	.	.	.	.	.
8cc]	_	.	.	.	.	.	.	.
4r	.	.	.	.	.	.	.	.
.	.	.	.	4GM	G:maj (G B D)	.	.	voice
8c	and	.	.	.	.	.	.	.
=54	=54	=54	=54	=54	=54	=54	=54	=54
4dd	my	1r	.	1Am	A:min (A C E)	newline	95.528	voice
8dd	love,	.	.	.	.	.	.	.
6cc	the	.	.	.	.	.	.	.
6dd	plea-	.	.	.	.	.	.	.
6cc	-sure's	.	.	.	.	.	.	.
8dd#q	_	.	.	.	.	.	.	.
[8ee	mine,	.	.	.	.	.	.	.
=55	=55	=55	=55	=55	=55	=55	=55	=55
2ee]	_	1r	.	1GM	G:maj (G B D)	.	.	voice
8ee	let	.	.	.	.	.	.	.
8ee	me	.	.	.	.	.	.	.
8gg	go	.	.	.	.	.	.	.
16dd#	cra	.	.	.	.	.	.	.
[16ee	_	.	.	.	.	.	.	.
=56	=56	=56	=56	=56	=56	=56	=56	=56
8.ee]	_	1r	.	1FM	F:maj (F A C)	.	.	voice
16cc	_	.	.	.	.	.	.	.
8a	zy	.	.	.	.	.	.	.
[8a	on	.	.	.	.	.	.	.
8a]	_	.	.	.	.	.	.	.
4a	you	.	.	.	.	.	.	.
8r	.	.	.	.	.	.	.	.
=57	=57	=57	=57	=57	=57	=57	=57	=57
*	*	*	*	*>C_verse	*>C_verse	*>C_verse	*>C_verse	*>C_verse
2r	.	1r	.	1Am	A:min (A C E)	newline	101.035	voice
8r	.	.	.	.	.	.	.	.
8ff#q	_	.	.	.	.	.	.	.
8.gg	Cra	.	.	.	.	.	.	.
8ddq	_	.	.	.	.	.	.	.
8.ee	_	.	.	.	.	.	.	.
=58	=58	=58	=58	=58	=58	=58	=58	=58
16dd	_	1r	.	1CM	C:maj (C E G)	.	.	voice
16cc	_	.	.	.	.	.	.	.
8a	_	.	.	.	.	.	.	.
8a	zy	.	.	.	.	.	.	.
[8a	on	.	.	.	.	.	.	.
4.a]	_	.	.	.	.	.	.	.
8cc	you!	.	.	.	.	.	.	.
=59	=59	=59	=59	=59	=59	=59	=59	=59
1r	.	1r	.	1Dm	D:min (D F A)	.	.	voice
=60	=60	=60	=60	=60	=60	=60	=60	=60
2r	.	1r	.	1EM	E:maj (E G# B)	.	.	voice
8r	.	.	.	.	.	.	.	.
16a	Lem-	.	.	.	.	.	.	.
16a	-me	.	.	.	.	.	.	.
4cc	go	.	.	.	.	.	.	.
=61	=61	=61	=61	=61	=61	=61	=61	=61
8cc	cra	1r	.	1Am	A:min (A C E)	.	.	voice
4dd	_	.	.	.	.	.	.	.
8cc	zy,	.	.	.	.	.	.	.
8.dd	cra-	.	.	.	.	.	.	.
16cc	-zy	.	.	.	.	.	.	.
8a	on	.	.	.	.	.	.	.
[8g	you,	.	.	.	.	.	.	.
=62	=62	=62	=62	=62	=62	=62	=62	=62
2.g]	_	1r	.	1CM	C:maj (C E G)	.	.	voice
8cc	a-	.	.	.	.	.	.	.
[8f	-oh	.	.	.	.	.	.	.
=63	=63	=63	=63	=63	=63	=63	=63	=63
4.f_	_	1r	.	1Dm	D:min (D F A)	.	.	voice
16f]	_	.	.	.	.	.	.	.
[16e	_	.	.	.	.	.	.	.
2e_	_	.	.	.	.	.	.	.
=64	=64	=64	=64	=64	=64	=64	=64	=64
2e]	_	1r	.	1EM	E:maj (E G# B)	.	.	voice
2r	.	.	.	.	.	.	.	.
=65	=65	=65	=65	=65	=65	=65	=65	=65
*A:	*	*A:	*	*>E_transition	*>E_transition	*>E_transition	*>E_transition	*>E_transition
*clefF4	*	*	*	*	*	*	*	*
8d#q	_	.	.	.	.	.	.	.
4.e	Wild	1r	.	2.Am	A:min (A C E)	newline	115.844	electric guitar
[8c#	man's	.	.	.	.	.	.	.
8c#]	_	.	.	.	.	.	.	.
4c#	world	.	.	.	.	.	.	.
.	.	.	.	4DM	D:maj (A D F#)	.	.	electric guitar
8c#	is	.	.	.	.	.	.	.
=66	=66	=66	=66	=66	=66	=66	=66	=66
8f#	cry-	1r	.	1DM	D:maj (A D F#)	.	.	electric guitar
8e	-ing	.	.	.	.	.	.	.
4d	in	.	.	.	.	.	.	.
8e	pain	.	.	.	.	.	.	.
4f#	_	.	.	.	.	.	.	.
8r	.	.	.	.	.	.	.	.
=67	=67	=67	=67	=67	=67	=67	=67	=67
*clefG2	*	*	*	*	*	*	*	*
8g#	what	1r	.	2.Am	A:min (A C E)	.	.	electric guitar
16e	you	.	.	.	.	.	.	.
[16e	gon	.	.	.	.	.	.	.
16e]	_	.	.	.	.	.	.	.
16c#	na	.	.	.	.	.	.	.
[8c#	do	.	.	.	.	.	.	.
8c#]	_	.	.	.	.	.	.	.
8e	when	.	.	.	.	.	.	.
8e	ev-	.	.	4DM	D:maj (A D F#)	.	.	electric guitar
8e	-'ry-	.	.	.	.	.	.	.
=68	=68	=68	=68	=68	=68	=68	=68	=68
8a	-bo-	1r	.	1DM	D:maj (A D F#)	.	.	electric guitar
8g#	-dy's	.	.	.	.	.	.	.
4f#	in-	.	.	.	.	.	.	.
8.f#	-sane?	.	.	.	.	.	.	.
[16a	_	.	.	.	.	.	.	.
8a]	_	.	.	.	.	.	.	.
8f#	_	.	.	.	.	.	.	.
=69	=69	=69	=69	=69	=69	=69	=69	=69
*	*	*	*	*>D_prechorus	*>D_prechorus	*>D_prechorus	*>D_prechorus	*>D_prechorus
8b	So	1r	.	2Dm	D:min (D F A)	newline	123.315	voice
16g#	a-	.	.	.	.	.	.	.
[16g#	-fraid	.	.	.	.	.	.	.
8g#]	_	.	.	.	.	.	.	.
8e	of	.	.	.	.	.	.	.
8e	one,	.	.	2Em	E:min (E G B)	.	.	voice
8e	who's	.	.	.	.	.	.	.
16e	so	.	.	.	.	.	.	.
8e	a-	.	.	.	.	.	.	.
16b	-fraid	.	.	.	.	.	.	.
=70	=70	=70	=70	=70	=70	=70	=70	=70
4.cc#	_	1r	.	2CM	C:maj (C E G)	.	.	voice
8b	of	.	.	.	.	.	.	.
8a	you	.	.	2FM	F:maj (F A C)	.	.	voice
8r	.	.	.	.	.	.	.	.
8g#	what	.	.	.	.	.	.	.
8a	you	.	.	.	.	.	.	.
=71	=71	=71	=71	=71	=71	=71	=71	=71
16a	gon	1r	.	1Dm	D:min (D F A)	.	.	voice
4.b	_	.	.	.	.	.	.	.
16a	na	.	.	.	.	.	.	.
4.g#	do	.	.	.	.	.	.	.
16a	_	.	.	.	.	.	.	.
16g#	_	.	.	.	.	.	.	.
=72	=72	=72	=72	=72	=72	=72	=72	=72
[1d [f#	_	1r	.	1EM	E:maj (E G# B)	.	.	voice
=73	=73	=73	=73	=73	=73	=73	=73	=73
*	*	*	*	*>B_chorus	*>B_chorus	*>B_chorus	*>B_chorus	*>B_chorus
2.d] f#]	_	1r	.	1Am	A:min (A C E)	newline	130.679	voice
[4c# [e	_	.	.	.	.	.	.	.
=74	=74	=74	=74	=74	=74	=74	=74	=74
1c#_ e_	_	1r	.	2.FM	F:maj (F A C)	.	.	voice
.	.	.	.	4GM	G:maj (G B D)	.	.	voice
=75	=75	=75	=75	=75	=75	=75	=75	=75
2.c#] e]	_	1r	.	1Am	A:min (A C E)	.	.	voice
4r	.	.	.	.	.	.	.	.
=76	=76	=76	=76	=76	=76	=76	=76	=76
1r	.	1e [b	Ah	2.FM	F:maj (F A C)	.	.	voice
.	.	.	.	4GM	G:maj (G B D)	.	.	voice
=77	=77	=77	=77	=77	=77	=77	=77	=77
1r	.	[2c# f# b_	_	1Am	A:min (A C E)	newline	137.942	voice
.	.	2c#] g# b_	_	.	.	.	.	.
=78	=78	=78	=78	=78	=78	=78	=78	=78
2r	.	1c# [a b_	_	1GM	G:maj (G B D)	.	.	voice
8r	.	.	.	.	.	.	.	.
8ddq	_	.	.	.	.	.	.	.
[4.ee	Ooh	.	.	.	.	.	.	.
=79	=79	=79	=79	=79	=79	=79	=79	=79
2.ee_	_	1d a] b]	_	1FM	F:maj (F A C)	.	.	voice
8ee]	_	.	.	.	.	.	.	.
8dd	cra-	.	.	.	.	.	.	.
=80	=80	=80	=80	=80	=80	=80	=80	=80
*C:	*	*C:	*	*	*	*	*	*
8ee	_	1r	.	1Am	A:min (A C E)	.	.	voice
16dd	_	.	.	.	.	.	.	.
16cc	_	.	.	.	.	.	.	.
8a	_	.	.	.	.	.	.	.
8a	-zy	.	.	.	.	.	.	.
4a	on	.	.	.	.	.	.	.
4a	you	.	.	.	.	.	.	.
=81	=81	=81	=81	=81	=81	=81	=81	=81
*	*	*	*	*>F_bridge	*>F_bridge	*>F_bridge	*>F_bridge	*>F_bridge
*	*	*	*	*A:	*A:	*A:	*A:	*A:
2r	.	1r	.	1F#mm	F#:min7 (F# A C# E)	newline	145.366	voice
8r	.	.	.	.	.	.	.	.
8ff#q	_	.	.	.	.	.	.	.
8.gg	cra	.	.	.	.	.	.	.
8ddq	_	.	.	.	.	.	.	.
8.ee	_	.	.	.	.	.	.	.
=82	=82	=82	=82	=82	=82	=82	=82	=82
16dd	_	1r	.	1DM	D:maj (D F# A)	.	.	voice
16cc	_	.	.	.	.	.	.	.
8a	_	.	.	.	.	.	.	.
8a	zy	.	.	.	.	.	.	.
[8a	on	.	.	.	.	.	.	.
4.a]	_	.	.	.	.	.	.	.
8cc	you!	.	.	.	.	.	.	.
=83	=83	=83	=83	=83	=83	=83	=83	=83
1r	.	1r	.	1C#m	C#:min (C# E G#)	.	.	voice
=84	=84	=84	=84	=84	=84	=84	=84	=84
2r	.	1r	.	1DM	D:maj (D F# A)	.	.	voice
8r	.	.	.	.	.	.	.	.
16a	Lem-	.	.	.	.	.	.	.
16a	-me	.	.	.	.	.	.	.
4cc	go	.	.	.	.	.	.	.
=85	=85	=85	=85	=85	=85	=85	=85	=85
8cc	cra	1r	.	1C#m	C#:min (C# E G#)	newline	152.627	voice
4dd	_	.	.	.	.	.	.	.
8cc	zy,	.	.	.	.	.	.	.
8.dd	cra-	.	.	.	.	.	.	.
16cc	-zy	.	.	.	.	.	.	.
8a	on	.	.	.	.	.	.	.
[8g	you,	.	.	.	.	.	.	.
=86	=86	=86	=86	=86	=86	=86	=86	=86
2.g]	_	1r	.	1DM	D:maj (D F# A)	.	.	voice
8cc	a-	.	.	.	.	.	.	.
[8f	-oh	.	.	.	.	.	.	.
=87	=87	=87	=87	=87	=87	=87	=87	=87
4.f_	_	2r	.	1C#m	C#:min (C# E G#)	.	.	voice
16f]	_	.	.	.	.	.	.	.
[16e	_	.	.	.	.	.	.	.
2e_	_	4r	.	.	.	.	.	.
.	.	16r	.	.	.	.	.	.
.	.	8d	I	.	.	.	.	.
.	.	16e-	_	.	.	.	.	.
=88	=88	=88	=88	=88	=88	=88	=88	=88
4e]	_	4e-	_	1Bmm	B:min7 (F# B D A)	.	.	voice
4r	.	8d	was	.	.	.	.	.
.	.	8c	a	.	.	.	.	.
2r	.	16e-	wil-	.	.	.	.	.
.	.	8d	-low	.	.	.	.	.
.	.	[16c	last	.	.	.	.	.
.	.	8c]	_	.	.	.	.	.
.	.	8d	night	.	.	.	.	.
=89	=89	=89	=89	=89	=89	=89	=89	=89
1r	.	8c	_	1Bmm	B:min7 (B D F# A)	newline	159.958	voice
.	.	16d	in	.	.	.	.	.
.	.	[16c	a	.	.	.	.	.
.	.	8c]	_	.	.	.	.	.
.	.	8dq	_	.	.	.	.	.
.	.	[8e	dream	.	.	.	.	.
.	.	8e]	_	.	.	.	.	.
.	.	4r	.	.	.	.	.	.
.	.	8A	I	.	.	.	.	.
=90	=90	=90	=90	=90	=90	=90	=90	=90
.	.	8gq	_	.	.	.	.	.
1r	.	8a	bent	1AM	A:maj (A C# E)	.	.	voice
.	.	[8g	down	.	.	.	.	.
.	.	8g]	_	.	.	.	.	.
.	.	8d	o	.	.	.	.	.
.	.	8e	_	.	.	.	.	.
.	.	16d	ver	.	.	.	.	.
.	.	[16c	a	.	.	.	.	.
.	.	8c]	_	.	.	.	.	.
.	.	[8d	clear	.	.	.	.	.
=91	=91	=91	=91	=91	=91	=91	=91	=91
1r	.	4d]	_	1AM	A:maj (A C# E)	.	.	voice
.	.	16d	run-	.	.	.	.	.
.	.	8.c	-ning	.	.	.	.	.
.	.	8dq	_	.	.	.	.	.
.	.	8e	stream	.	.	.	.	.
.	.	8d	_	.	.	.	.	.
.	.	4r	.	.	.	.	.	.
=92	=92	=92	=92	=92	=92	=92	=92	=92
1r	.	8e	I	1EM	E:maj (E G# B)	newline	165.524	voice
.	.	8d	sang	.	.	.	.	.
.	.	8c	a	.	.	.	.	.
.	.	8d	song	.	.	.	.	.
.	.	8c	_	.	.	.	.	.
.	.	16d	that	.	.	.	.	.
.	.	[16c	I	.	.	.	.	.
.	.	16c]	_	.	.	.	.	.
.	.	8e-q	_	.	.	.	.	.
.	.	[8.d	heard	.	.	.	.	.
=93	=93	=93	=93	=93	=93	=93	=93	=93
1r	.	8d]	_	1EM	E:maj (E G# B)	.	.	voice
.	.	8d	up	.	.	.	.	.
.	.	8c	a-	.	.	.	.	.
.	.	8d	-bove	.	.	.	.	.
.	.	4e	_	.	.	.	.	.
.	.	8.r	.	.	.	.	.	.
.	.	16A	And	.	.	.	.	.
=94	=94	=94	=94	=94	=94	=94	=94	=94
1r	.	16A	you	1EM	E:maj (E G# B)	.	.	voice
*	*	*clefG2	*	*	*	*	*	*
.	.	16r	.	.	.	.	.	.
.	.	8a	kept	.	.	.	.	.
.	.	8a	me	.	.	.	.	.
.	.	16a	a-	.	.	.	.	.
.	.	16g	-live	.	.	.	.	.
.	.	4a	_	.	.	.	.	.
.	.	8a	with	.	.	.	.	.
.	.	8a	your	.	.	.	.	.
=95	=95	=95	=95	=95	=95	=95	=95	=95
1r	.	8r	.	1EMm	E:7 (E G# B D)	.	.	voice
.	.	8cc	sweet	.	.	.	.	.
.	.	8r	.	.	.	.	.	.
.	.	8dd	flo-	.	.	.	.	.
.	.	8cc	-wing	.	.	.	.	.
.	.	8ddq	_	.	.	.	.	.
.	.	[4.ee	love	.	.	.	.	.
=96	=96	=96	=96	=96	=96	=96	=96	=96
*clefG2	*	*	*	*>B_chorus	*>B_chorus	*>B_chorus	*>B_chorus	*>B_chorus
*	*	*	*	*a:	*a:	*a:	*a:	*a:
1ee	Cra-	2.ee]	Cra	1Am	A:min (A C E)	newline	172.88	voice
.	.	8g	_	.	.	.	.	.
.	.	8g	zy!	.	.	.	.	.
=97	=97	=97	=97	=97	=97	=97	=97	=97
4b	-!	1r	.	2.FM	F:maj (F A C)	.	.	voice
4r	.	.	.	.	.	.	.	.
8r	.	.	.	.	.	.	.	.
8a	Yeah!	.	.	.	.	.	.	.
4g	_	.	.	4GM	G:maj (G B D)	.	.	voice
=98	=98	=98	=98	=98	=98	=98	=98	=98
8gg	Cra	1r	.	1Am	A:min (A C E)	.	.	voice
8ee	_	.	.	.	.	.	.	.
16dd	_	.	.	.	.	.	.	.
16cc	_	.	.	.	.	.	.	.
8a	_	.	.	.	.	.	.	.
8a	zy	.	.	.	.	.	.	.
4a	on	.	.	.	.	.	.	.
8a	you	.	.	.	.	.	.	.
=99	=99	=99	=99	=99	=99	=99	=99	=99
2r	.	1r	.	2.FM	F:maj (F A C)	.	.	voice
8r	.	.	.	.	.	.	.	.
16a	Lem-	.	.	.	.	.	.	.
16a	-me	.	.	.	.	.	.	.
4cc	go	.	.	4GM	G:maj (G B D)	.	.	voice
=100	=100	=100	=100	=100	=100	=100	=100	=100
8cc	cra	1r	.	1Am	A:min (A C E)	newline	180.158	voice
4dd	_	.	.	.	.	.	.	.
8cc	zy,	.	.	.	.	.	.	.
8.dd	cra-	.	.	.	.	.	.	.
16cc	-zy	.	.	.	.	.	.	.
8a	on	.	.	.	.	.	.	.
[8g	you	.	.	.	.	.	.	.
=101	=101	=101	=101	=101	=101	=101	=101	=101
2.g]	_	1r	.	1GM	G:maj (G B D)	.	.	voice
8cc	a-	.	.	.	.	.	.	.
[8f	-oh	.	.	.	.	.	.	.
=102	=102	=102	=102	=102	=102	=102	=102	=102
4f_	_	1r	.	1FM	F:maj (F A C)	.	.	voice
8.f]	_	.	.	.	.	.	.	.
16e	_	.	.	.	.	.	.	.
8r	.	.	.	.	.	.	.	.
8ddq	_	.	.	.	.	.	.	.
4.ee	cra	.	.	.	.	.	.	.
=103	=103	=103	=103	=103	=103	=103	=103	=103
*	*	*	*	*>C_verse	*>C_verse	*>C_verse	*>C_verse	*>C_verse
8ddq	_	.	.	.	.	.	.	.
6ee	_	1r	.	1Am	A:min (A C E)	newline	185.541	.
8ddq	_	.	.	.	.	.	.	.
12ee	_	.	.	.	.	.	.	.
12dd	_	.	.	.	.	.	.	.
12cc	_	.	.	.	.	.	.	.
[12a	zy	.	.	.	.	.	.	.
8a]	_	.	.	.	.	.	.	.
[4.a	on	.	.	.	.	.	.	.
=104	=104	=104	=104	=104	=104	=104	=104	=104
8a]	_	1r	.	1CM	C:maj (C E G)	.	.	.
8a	you!	.	.	.	.	.	.	.
4r	.	.	.	.	.	.	.	.
8r	.	.	.	.	.	.	.	.
8ff#q	_	.	.	.	.	.	.	.
8.gg	Cra	.	.	.	.	.	.	.
8ddq	_	.	.	.	.	.	.	.
8.ee	_	.	.	.	.	.	.	.
=105	=105	=105	=105	=105	=105	=105	=105	=105
16dd	_	1r	.	1Dm	D:min (D F A)	.	.	.
16cc	_	.	.	.	.	.	.	.
8a	_	.	.	.	.	.	.	.
8a	zy	.	.	.	.	.	.	.
[8a	on	.	.	.	.	.	.	.
4.a]	_	.	.	.	.	.	.	.
8cc	you	.	.	.	.	.	.	.
=106	=106	=106	=106	=106	=106	=106	=106	=106
2r	.	1r	.	1EM	E:maj (E G# B)	.	.	.
8r	.	.	.	.	.	.	.	.
16a	Lem-	.	.	.	.	.	.	.
16a	-me	.	.	.	.	.	.	.
4cc	go	.	.	.	.	.	.	.
=107	=107	=107	=107	=107	=107	=107	=107	=107
8cc	cra	1r	.	1Am	A:min (A C E)	.	.	.
4dd	_	.	.	.	.	.	.	.
8cc	zy,	.	.	.	.	.	.	.
8.dd	cra-	.	.	.	.	.	.	.
16cc	-zy	.	.	.	.	.	.	.
8a	on	.	.	.	.	.	.	.
[8g	you	.	.	.	.	.	.	.
=108	=108	=108	=108	=108	=108	=108	=108	=108
1g]	_	1r	.	1CM	C:maj (C E G)	.	.	.
=109	=109	=109	=109	=109	=109	=109	=109	=109
2f	oh	1r	.	1Dm	D:min (D F A)	.	.	.
[2e	yeah	.	.	.	.	.	.	.
=110	=110	=110	=110	=110	=110	=110	=110	=110
2e]	_	1r	.	1EM	E:maj (E G# B)	.	.	.
2r	.	.	.	.	.	.	.	.
=111	=111	=111	=111	=111	=111	=111	=111	=111
*A:	*	*A:	*	*>B_chorus	*>B_chorus	*>B_chorus	*>B_chorus	*>B_chorus
1r	.	1r	.	1Am	A:min (A C E)	newline	200.248	.
=112	=112	=112	=112	=112	=112	=112	=112	=112
1r	.	1r	.	2.FM	F:maj (F A C)	.	.	.
.	.	.	.	4GM	G:maj (G B D)	.	.	.
=113	=113	=113	=113	=113	=113	=113	=113	=113
1r	.	1r	.	1Am	A:min (A C E)	.	.	.
=114	=114	=114	=114	=114	=114	=114	=114	=114
1r	.	1r	.	2.FM	F:maj (F A C)	.	.	.
.	.	.	.	4GM	G:maj (G B D)	.	.	.
=115	=115	=115	=115	=115	=115	=115	=115	=115
1r	.	1r	.	1Am	A:min (A C E)	newline	207.557	.
=116	=116	=116	=116	=116	=116	=116	=116	=116
1r	.	1r	.	1GM	G:maj (G B D)	.	.	.
=117	=117	=117	=117	=117	=117	=117	=117	=117
1r	.	1r	.	1FM	F:maj (F A C)	.	.	.
=118	=118	=118	=118	=118	=118	=118	=118	=118
*	*	*	*	*>B_chorus	*>B_chorus	*>B_chorus	*>B_chorus	*>B_chorus
1r	.	1r	.	1Am	A:min (A C E)	newline	213.069	.
=119	=119	=119	=119	=119	=119	=119	=119	=119
1r	.	1r	.	2.FM	F:maj (F A C)	.	.	.
.	.	.	.	4GM	G:maj (G B D)	.	.	.
=120	=120	=120	=120	=120	=120	=120	=120	=120
1r	.	1r	.	1Am	A:min (A C E)	.	.	.
=121	=121	=121	=121	=121	=121	=121	=121	=121
1r	.	1r	.	2.FM	F:maj (F A C)	.	.	.
.	.	.	.	4GM	G:maj (G B D)	.	.	.
=122	=122	=122	=122	=122	=122	=122	=122	=122
1r	.	1r	.	1Am	A:min (A C E)	newline	220.267	voice
=123	=123	=123	=123	=123	=123	=123	=123	=123
1r	.	1r	.	1GM	G:maj (G B D)	.	.	voice
=124	=124	=124	=124	=124	=124	=124	=124	=124
1r	.	1r	.	1FM	F:maj (F A C)	.	.	voice
=125	=125	=125	=125	=125	=125	=125	=125	=125
*	*	*	*	*>B_solo	*>B_solo	*>B_solo	*>B_solo	*>B_solo
1r	.	1r	.	1Am	A:min (A C E)	newline	225.713	electric guitar
=126	=126	=126	=126	=126	=126	=126	=126	=126
1r	.	1r	.	2.FM	F:maj (F A C)	.	.	electric guitar
.	.	.	.	4GM	G:maj (G B D)	.	.	electric guitar
=127	=127	=127	=127	=127	=127	=127	=127	=127
1r	.	1r	.	1Am	A:min (A C E)	.	.	electric guitar
=128	=128	=128	=128	=128	=128	=128	=128	=128
1r	.	1r	.	2.FM	F:maj (F A C)	.	.	electric guitar
.	.	.	.	4GM	G:maj (G B D)	.	.	electric guitar
=129	=129	=129	=129	=129	=129	=129	=129	=129
1r	.	1e [b	Ah!	1Am	A:min (A C E)	newline	232.953	electric guitar
=130	=130	=130	=130	=130	=130	=130	=130	=130
1r	.	2c# f# b_	_	1GM	G:maj (G B D)	.	.	electric guitar
.	.	2c# g# b]	_	.	.	.	.	.
=131	=131	=131	=131	=131	=131	=131	=131	=131
1r	.	1c# [a [b	_	1FM	F:maj (F A C)	.	.	electric guitar
=132	=132	=132	=132	=132	=132	=132	=132	=132
1r	.	1d a] b]	_	1Am	A:min (A C E)	.	.	electric guitar
=133	=133	=133	=133	=133	=133	=133	=133	=133
*C:	*	*C:	*	*>F_solo	*>F_solo	*>F_solo	*>F_solo	*>F_solo
*	*	*	*	*A:	*A:	*A:	*A:	*A:
8ddq	_	.	.	.	.	.	.	.
8ee	Cra	1r	.	1F#mm	F#:min7 (F# A C# E)	newline	240.141	electric guitar
16dd	_	.	.	.	.	.	.	.
16cc	_	.	.	.	.	.	.	.
8a	zy	.	.	.	.	.	.	.
[8a	on	.	.	.	.	.	.	.
4.a]	_	.	.	.	.	.	.	.
8a	you	.	.	.	.	.	.	.
=134	=134	=134	=134	=134	=134	=134	=134	=134
2r	.	1r	.	1DM	D:maj (D F# A)	.	.	electric guitar
4r	.	.	.	.	.	.	.	.
8ffq	_	.	.	.	.	.	.	.
8gg	Cra	.	.	.	.	.	.	.
8ddq	_	.	.	.	.	.	.	.
8ee	_	.	.	.	.	.	.	.
=135	=135	=135	=135	=135	=135	=135	=135	=135
16dd	_	1r	.	1C#m	C#:min (C# E G#)	.	.	electric guitar
16cc	_	.	.	.	.	.	.	.
8a	_	.	.	.	.	.	.	.
8a	zy	.	.	.	.	.	.	.
[8a	on	.	.	.	.	.	.	.
4.a]	_	.	.	.	.	.	.	.
8cc	you	.	.	.	.	.	.	.
=136	=136	=136	=136	=136	=136	=136	=136	=136
2r	.	1r	.	1DM	D:maj (D F# A)	.	.	electric guitar
8r	.	.	.	.	.	.	.	.
16a	Lem-	.	.	.	.	.	.	.
16a	-me	.	.	.	.	.	.	.
4cc	go	.	.	.	.	.	.	.
=137	=137	=137	=137	=137	=137	=137	=137	=137
8cc	cra	1r	.	1C#m	C#:min (C# E G#)	newline	247.505	electric guitar
4dd	_	.	.	.	.	.	.	.
8cc	zy,	.	.	.	.	.	.	.
8.dd	cra-	.	.	.	.	.	.	.
16cc	-zy	.	.	.	.	.	.	.
8a	on	.	.	.	.	.	.	.
[8g	you	.	.	.	.	.	.	.
=138	=138	=138	=138	=138	=138	=138	=138	=138
8aq	_	.	.	.	.	.	.	.
1g]	_	1r	.	1DM	D:maj (D F# A)	.	.	electric guitar
=139	=139	=139	=139	=139	=139	=139	=139	=139
[4.f	-oh	1r	.	1C#m	C#:min (C# E G#)	.	.	electric guitar
16f]	_	.	.	.	.	.	.	.
[16e	_	.	.	.	.	.	.	.
2e_	_	.	.	.	.	.	.	.
=140	=140	=140	=140	=140	=140	=140	=140	=140
1e];	_	1r	.	1Bmm	B:min7 (F# B D A)	.	.	electric guitar
*-	*-	*-	*-	*	*	*	*
=124	=124	=124	=124	=124
1Bmm	B:min7 (B D F# A)	newline	254.786	electric guitar
=125	=125	=125	=125	=125
1AM	A:maj (A C# E)	.	.	electric guitar
=126	=126	=126	=126	=126
1AM	A:maj (A C# E)	.	.	electric guitar
=127	=127	=127	=127	=127
1EM	E:maj (E G# B)	newline	260.356	electric guitar
=128	=128	=128	=128	=128
1EM	E:maj (E G# B)	.	.	electric guitar
=129	=129	=129	=129	=129
1EM	E:maj (E G# B)	.	.	electric guitar
=130	=130	=130	=130	=130
1EMm	E:7 (E G# B D)	.	.	electric guitar
=131	=131	=131	=131	=131
*>B_chorus	*>B_chorus	*>B_chorus	*>B_chorus	*>B_chorus
*a:	*a:	*a:	*a:	*a:
1Am	A:min (A C E)	newline	267.584	voice
=132	=132	=132	=132	=132
2.FM	F:maj (F A C)	.	.	voice
4GM	G:maj (G B D)	.	.	voice
=133	=133	=133	=133	=133
1Am	A:min (A C E)	.	.	voice
=134	=134	=134	=134	=134
2.FM	F:maj (F A C)	.	.	voice
4GM	G:maj (G B D)	.	.	voice
=135	=135	=135	=135	=135
1Am	A:min (A C E)	newline	274.851	voice
=136	=136	=136	=136	=136
1GM	G:maj (G B D)	.	.	voice
=137	=137	=137	=137	=137
1FM	F:maj (F A C)	.	.	voice
=138	=138	=138	=138	=138
1Am	A:min (A C E)	.	.	voice
1r;	r	.	290.293	r
1r;	r	.	291.51	r
*-	*-	*-	*-	*-
!!!BillboardChartDate: 1978/02/11, 1976/06/12
!!!BillboardPeak: 35, 35
!!!BillboardWeeksOnChart: 19, 19
!!!COC: Heart
!!!ENC: Nathaniel Condit-Schultz
!!!EST: Awating manual error checking and editing.
!!!OTL: Crazy On You
!!!RDF**chordsym: original McGill chord annotation + (implied pitch class set, with bass pitch in first position)
!!!RDF**harmony: **recip + pitch class of root + harmonic quality
!!!RDF**leadinstrument: original McGill primary instrumentation annotation
!!!RDF**phrase: newline = linebreak in original McGill transcription
!!!RDF**timestamp: McGill audio timestamp in seconds
!!!RDT: 2017/01/12/
!!!SampleActualRank: 100,  49
!!!SampleID#: 33, 73
!!!SampleTargetRank: 99, 49
